svg/other/hand_heart_line.svg

<?xml version="1.0" encoding="UTF-8"?>
<svg width="24px" height="24px" viewBox="0 0 24 24" version="1.1" xmlns="http://www.w3.org/2000/svg" xmlns:xlink="http://www.w3.org/1999/xlink">
    <title>hand_heart_line</title>
    <g id="Icon" stroke="none" stroke-width="1" fill="none" fill-rule="evenodd">
        <g id="Other" transform="translate(-768.000000, 0.000000)">
            <g id="hand_heart_line" transform="translate(768.000000, 0.000000)">
                <path d="M24,0 L24,24 L0,24 L0,0 L24,0 Z M12.5935,23.2578 L12.5819,23.2595 L12.5109,23.295 L12.4919,23.2987 L12.4767,23.295 L12.4057,23.2595 C12.3958,23.2564 12.387,23.259 12.3821,23.2649 L12.378,23.2758 L12.3609,23.7031 L12.3659,23.7235 L12.3769,23.7357 L12.4805,23.8097 L12.4953,23.8136 L12.5071,23.8097 L12.6107,23.7357 L12.6233,23.7197 L12.6267,23.7031 L12.6096,23.2758 C12.6076,23.2657 12.601,23.2593 12.5935,23.2578 Z M12.8584,23.1453 L12.8445,23.1473 L12.6598,23.2397 L12.6499,23.2499 L12.6472,23.2611 L12.6651,23.6906 L12.6699,23.7034 L12.6784,23.7105 L12.8793,23.8032 C12.8914,23.8069 12.9022,23.803 12.9078,23.7952 L12.9118,23.7812 L12.8777,23.1665 C12.8753,23.1546 12.8674,23.147 12.8584,23.1453 Z M12.143,23.1473 C12.1332,23.1424 12.1222,23.1453 12.1156,23.1526 L12.1099,23.1665 L12.0758,23.7812 C12.0751,23.7927 12.0828,23.8019 12.0926,23.8046 L12.1083,23.8032 L12.3092,23.7105 L12.3186,23.7024 L12.3225,23.6906 L12.3404,23.2611 L12.3372,23.2485 L12.3278,23.2397 L12.143,23.1473 Z" id="MingCute" fill-rule="nonzero"></path>
                <path d="M11.2525554,11.7894725 L11.4792,11.8392 L15.1949,12.7681 C16.366,13.0609 16.9556,14.2956 16.5846,15.4086 L16.905212,15.1875611 L17.550625,14.7261 C17.8763,14.496925 18.208,14.2781 18.5528,14.1057 C20.0886061,13.337797 21.8873234,14.3974848 21.9949263,16.0769694 L22,16.2362 L22,16.2919 C22,16.9891167 21.6990965,17.649025 21.180246,18.1057122 L21.0334,18.2251 L17.9629,20.528 C17.6643167,20.7519167 17.3269833,20.9177778 16.9686662,21.017713 L16.7513,21.0697 L13.5419,21.7116 C12.5424583,21.9114333 11.5080611,21.800784 10.5765839,21.3979071 L10.3252,21.2808 L7.97508,20.1057 C7.870935,20.05365 7.75877438,20.0203312 7.64370703,20.006925 L7.52786,20.0002 L6.73244,20.0002 C6.41323077,20.5520154 5.83794012,20.9371657 5.16907241,20.9931544 L5,21.0002 L4,21.0002 C2.94563773,21.0002 2.08183483,20.1842589 2.00548573,19.1494537 L2,19.0002 L2,15.0002 C2,13.9458091 2.81587733,13.0820322 3.85073759,13.0056856 L4,13.0002 L5,13.0002 C5.48425778,13.0002 5.92831407,13.1722889 6.2743459,13.4586647 L6.3994,13.5713 L8.38905,12.3277 C9.17847857,11.8343286 10.1107684,11.6343204 11.0245806,11.7531169 L11.2525554,11.7894725 Z M9.44905,14.0237 L7,15.5544 L7,18.0002 L7.52786,18.0002 C7.9936,18.0002 8.45294,18.1086 8.8695,18.3169 L11.2197,19.492 C11.8164,19.7903 12.4955,19.8813 13.1497,19.7504 L16.359,19.1085 C16.5055,19.0793 16.6435,19.0176 16.7629,18.928 L19.8334,16.6251 C19.9614,16.5291 20,16.388 20,16.2362 C20,15.967 19.7314,15.787 19.487,15.8773 L17.0585,17.4963 C16.5657,17.8248 15.9867,18.0002 15.3944,18.0002 L12,18.0002 L12,16.0002 L13.5585,16.0002 C13.9889,16.0002 14.3711,15.7247 14.5072,15.3164 L14.7098,14.7084 L10.9941,13.7795 C10.4673,13.6477 9.90955,13.7359 9.44905,14.0237 Z M5,15.0002 L4,15.0002 L4,19.0002 L5,19.0002 L5,15.0002 Z M16,3.46857 C17.0309,2.82501 18.2121,2.87618 19.1658,3.43188 C20.278,4.07987 21.0321,5.3738 20.9989,6.85406 C20.9577462,8.68946385 19.5893919,10.1975471 17.5611178,11.4532254 L17.1626535,11.6930295 C16.8048469,11.9045047 16.423325,12.1113 16,12.1113 C15.576675,12.1113 15.1951531,11.9045047 14.8373465,11.6930295 L14.4388822,11.4532254 C12.4106081,10.1975471 11.0422538,8.68946385 11.0011,6.85406 C10.9679,5.3738 11.722,4.07987 12.8342,3.43188 C13.7879,2.87618 14.9691,2.82501 16,3.46857 Z M18.159,5.15997 C17.7801692,4.93925308 17.3295089,4.91366893 16.8814244,5.2962327 L16.6749213,5.48561551 C16.2816501,5.79988816 15.7183499,5.79988816 15.3250787,5.48561551 L15.1185756,5.2962327 C14.6704911,4.91366893 14.2198308,4.93925308 13.841,5.15997 C13.3799,5.42862 12.9831,6.03038 13.0006,6.80922 C13.018072,7.5883944 13.6194698,8.58975734 15.4690531,9.73878752 L15.7068,9.88318 L16,10.05443 L16.2931,9.88318 C18.3294,8.67359 18.9812,7.62086 18.9994,6.80922 C19.0169,6.03038 18.6201,5.42862 18.159,5.15997 Z" id="形状" fill="#09244B"></path>
            </g>
        </g>
    </g>
</svg>

<svg xmlns="http://www.w3.org/2000/svg" width="24" height="24"><g fill="none" fill-rule="evenodd"><path d="M24 0v24H0V0h24ZM12.594 23.258l-.012.002-.071.035-.02.004-.014-.004-.071-.036c-.01-.003-.019 0-.024.006l-.004.01-.017.428.005.02.01.013.104.074.015.004.012-.004.104-.074.012-.016.004-.017-.017-.427c-.002-.01-.009-.017-.016-.018Zm.264-.113-.014.002-.184.093-.01.01-.003.011.018.43.005.012.008.008.201.092c.012.004.023 0 .029-.008l.004-.014-.034-.614c-.003-.012-.01-.02-.02-.022Zm-.715.002a.023.023 0 0 0-.027.006l-.006.014-.034.614c0 .012.007.02.017.024l.015-.002.201-.093.01-.008.003-.011.018-.43-.003-.012-.01-.01-.184-.092Z"/><path fill="#09244B" d="m11.253 11.79.226.05 3.716.928c1.171.293 1.76 1.528 1.39 2.64l.32-.22.646-.462c.325-.23.657-.448 1.002-.62 1.536-.768 3.334.291 3.442 1.971l.005.16v.055c0 .697-.3 1.357-.82 1.814l-.147.12-3.07 2.302c-.299.224-.636.39-.994.49l-.218.052-3.21.642a5 5 0 0 1-2.964-.314l-.252-.117-2.35-1.175a1 1 0 0 0-.331-.1L7.528 20h-.796a2 2 0 0 1-1.563.993L5 21H4a2 2 0 0 1-1.995-1.85L2 19v-4a2 2 0 0 1 1.85-1.994L4 13h1c.484 0 .928.172 1.274.459l.125.112 1.99-1.243a4 4 0 0 1 2.636-.575l.228.036Zm-1.804 2.234L7 15.554V18h.528a3 3 0 0 1 1.342.317l2.35 1.175a3 3 0 0 0 1.93.258l3.209-.642a.998.998 0 0 0 .404-.18l3.07-2.303c.128-.096.167-.237.167-.389 0-.269-.269-.449-.513-.359l-2.428 1.62a3 3 0 0 1-1.665.503H12v-2h1.559a1 1 0 0 0 .948-.684l.203-.608-3.716-.928a2 2 0 0 0-1.545.244ZM5 15H4v4h1v-4ZM16 3.47c1.03-.644 2.212-.593 3.166-.037 1.112.648 1.866 1.942 1.833 3.422-.041 1.835-1.41 3.344-3.438 4.6l-.398.239c-.358.212-.74.418-1.163.418-.423 0-.805-.206-1.163-.418l-.398-.24C12.41 10.198 11.042 8.69 11 6.854c-.033-1.48.721-2.774 1.833-3.422.954-.556 2.135-.607 3.166.037Zm2.159 1.691c-.379-.22-.83-.246-1.278.136l-.206.19a1.084 1.084 0 0 1-1.35 0l-.206-.19c-.449-.382-.9-.357-1.278-.136-.461.269-.858.87-.84 1.65.017.778.618 1.78 2.468 2.929l.238.144.293.171.293-.17C18.33 8.673 18.981 7.62 19 6.808c.018-.779-.379-1.38-.84-1.649Z"/></g></svg>
